src/assets/icons/favicon.svg

<svg width="256" height="256" viewBox="0 0 256 256" fill="none" xmlns="http://www.w3.org/2000/svg">
<rect width="256" height="256" rx="128" fill="url(#paint0_linear_497_3850)"/>
<path fill-rule="evenodd" clip-rule="evenodd" d="M159.474 57.6182C158.563 56.0709 156.546 55.5404 154.97 56.4341L100.994 87.0186C99.7656 87.7152 99.1277 89.1059 99.4126 90.4704L117.578 177.595C117.666 178.015 117.484 178.634 117.209 178.939L115.002 181.381C110.414 186.461 106.527 189.212 99.1387 189.212C90.8545 189.212 86.965 184.926 80.8063 177.351C73.4509 168.306 64.2987 157.048 42.0464 157.048H41.4962C38.4613 157.048 36.001 159.463 36.001 162.441C36.001 165.42 38.4613 167.835 41.4962 167.835H42.0464C59.0068 167.835 65.4224 175.725 72.2153 184.079C78.2827 191.542 85.1596 200 99.1387 200C111.206 200 117.847 194.491 123.226 188.538L143.064 166.583C143.064 166.581 190.248 114.358 190.248 114.358C191.189 113.316 191.346 111.8 190.636 110.593L159.474 57.6182Z" fill="white"/>
<defs>
<linearGradient id="paint0_linear_497_3850" x1="-14.3" y1="-10.88" x2="319.271" y2="62.8755" gradientUnits="userSpaceOnUse">
<stop stop-color="#176FEB"/>
<stop offset="1" stop-color="#FF80FF"/>
</linearGradient>
</defs>
</svg>

<svg xmlns="http://www.w3.org/2000/svg" width="256" height="256" fill="none"><rect width="256" height="256" fill="url(#a)" rx="128"/><path fill="#fff" fill-rule="evenodd" d="M159.474 57.618c-.911-1.547-2.928-2.078-4.504-1.184L100.994 87.02a3.215 3.215 0 0 0-1.581 3.451l18.165 87.125c.088.42-.094 1.039-.369 1.344l-2.207 2.442c-4.588 5.08-8.475 7.831-15.863 7.831-8.284 0-12.174-4.286-18.333-11.861-7.355-9.045-16.507-20.303-38.76-20.303h-.55c-3.035 0-5.495 2.415-5.495 5.393 0 2.979 2.46 5.394 5.495 5.394h.55c16.96 0 23.376 7.89 30.17 16.244C78.282 191.542 85.16 200 99.138 200c12.067 0 18.708-5.509 24.087-11.462l19.838-21.955c0-.002 47.184-52.225 47.184-52.225a3.19 3.19 0 0 0 .388-3.765z" clip-rule="evenodd"/><defs><linearGradient id="a" x1="-14.3" x2="319.271" y1="-10.88" y2="62.876" gradientUnits="userSpaceOnUse"><stop stop-color="#176FEB"/><stop offset="1" stop-color="#FF80FF"/></linearGradient></defs></svg>
